X: 433
T: Liverpool Jigg
M:6/4
L:1/4
S: 8: MCJLSH3 http://www.cpartington.plus.com/links/Walsh.abc
Z: Pete Stewart 2004
B: Walsh "Third Book of the most Celebrated jiggs, Lancashire hornpipes, ..."
K:D
a/g/ | f>ga b>ag | g>fg efg | a>ga Bed | c2AA2a/g/ | f>ga b>ab | g>fg e>fg | a>gf eca | f2dd2 ||
e/d/ | c>def/g/af | ecaB2c | d>cdBed | c2AA2B/c/ | d>cdBcd | g>fe/d/c>de | a>gfed/c/B/A/ | d2DD2 ||

%%sep 1 1 500
%%sep 1 1 500
